X: 166
T: No_76_Love-charm_Song.krn
N: Derived from No_76_Love-charm_Song.krn
%%abc-version 2.0
%%abcx-abcm2ps-target-version 5.9.1 (29 Sep 2008)
%%abc-creator hum2abc beta
%%abcx-conversion-date 2019/03/15 08:29:13
%%humdrum-veritas 3069658317
%%humdrum-veritas-data 1070104676
%%linebreak <none>
%%barnumbers 0
L: 1/8
M: 3/4
K: Ab clef=treble
cc [I:setbarnb 1]| 
B2B2(3AAF | 
A2A2BB | 
A2A2(3FFF | 
F2F2FF | 
F2F2(3FFF | 
F3/c/ c3/c/ c (3c/B/A/ ||  
[M:4/4]A2A2A2cc ||  
[M:3/4]B2B2(3AAF | 
A2A2BB | 
A2A2(3FFF | 
F2F3/F/F2 ||  
[M:2/4]F4 |]  



